X: 17399
T: High Road To Linton, The
R: reel
M: 4/4
K: Amajor
K: Amaj
|:cefe ~a3 e|fece faaB|cefe ~a3 e|(3fgf ec Bc AB:|
ceea fd (3ddd|ec (3cdc dB ~B2|ceea faec|dacg aA A2|
ceea fd (3ddd|ec (3cdc dB ~B2|ceea faec|d2 Bd cA A2||

